src/client/web-contents/img/common/badge/badge_member_03.svg

<svg height="36" viewBox="0 0 120 36" width="120" xmlns="http://www.w3.org/2000/svg"><g fill="none" fill-rule="evenodd"><rect fill="#8d92aa" height="36" rx="18" width="120"/><path d="m29.34 25.2000002c-1.0800054 0-2.1133284-.1833315-3.1-.55s-1.8999958-.9299962-2.74-1.69l1.48-1.76c.6800034.5866696 1.3666632 1.0366651 2.06 1.35s1.4799956.47 2.36.47c.7600038 0 1.3633311-.1599984 1.81-.48s.67-.746664.67-1.28v-.04c0-.2533346-.0433329-.4766657-.13-.67s-.2466655-.3766658-.48-.55-.5533313-.3333326-.96-.48-.9366634-.2933326-1.59-.44c-.7466704-.1733342-1.4099971-.3699989-1.99-.59s-1.0666647-.4866651-1.46-.8-.6933323-.6966644-.9-1.15-.31-.9999968-.31-1.64v-.04c0-.600003.1199988-1.1499975.36-1.65s.5699979-.9266649.99-1.28.9233304-.629999 1.51-.83 1.2266632-.3 1.92-.3c1.0266718 0 1.9499959.1499985 2.77.45s1.5899964.7366638 2.31 1.31l-1.32 1.86c-.6400032-.466669-1.2733302-.8233321-1.9-1.07s-1.2599968-.37-1.9-.37c-.7200036 0-1.279998.1599984-1.68.48s-.6.713331-.6 1.18v.04c0 .266668.0466662.5033323.14.71s.2633321.3933325.51.56.5866645.3233326 1.02.47.98333.2999992 1.65.46c.733337.1866676 1.3833305.3933322 1.95.62s1.0366648.5033317 1.41.83.6566657.7066645.85 1.14.29.9366638.29 1.51v.04c0 .6533366-.1233321 1.2399974-.37 1.76s-.5899978.9599982-1.03 1.32-.9666636.6333324-1.58.82-1.286663.28-2.02.28zm8.04-14.2h2.46v14h-2.46zm6.2 0h2.46v11.76h7.36v2.24h-9.82zm11.18 0h2.72l4.22 10.76 4.2-10.76h2.66l-5.82 14.1h-2.16zm16.2 0h10.38v2.2h-7.92v3.64h7.02v2.2h-7.02v3.76h8.02v2.2h-10.48zm19.46 6.94c.8800044 0 1.5799974-.2099979 2.1-.63s.78-.9899964.78-1.71v-.04c0-.7600038-.2533308-1.3366647-.76-1.73s-1.2199954-.59-2.14-.59h-3.58v4.7zm-6.06-6.94h6.24c.8800044 0 1.6599966.1233321 2.34.37s1.2466644.5899978 1.7 1.03c.3733352.3866686.659999.8333308.86 1.34s.3 1.0666636.3 1.68v.04c0 .5733362-.0833325 1.0899977-.25 1.55s-.3966652.8666649-.69 1.22-.6433313.6533321-1.05.9-.8566642.436666-1.35.57l3.78 5.3h-2.9l-3.44-4.88h-3.08v4.88h-2.46z" fill="#fff"/></g></svg>

<?xml version="1.0" encoding="UTF-8" standalone="no"?>
<svg width="120px" height="36px" viewBox="0 0 120 36" version="1.1" xmlns="http://www.w3.org/2000/svg" xmlns:xlink="http://www.w3.org/1999/xlink">
    <!-- Generator: Sketch 50.2 (55047) - http://www.bohemiancoding.com/sketch -->
    <title>graphic_badge_member_03</title>
    <desc>Created with Sketch.</desc>
    <defs></defs>
    <g id="Icon_Badge_Graphic" stroke="none" stroke-width="1" fill="none" fill-rule="evenodd">
        <g id="##Element/Badge/Member03">
            <rect id="Rectangle-2" fill="#8D92AA" x="0" y="0" width="120" height="36" rx="18"></rect>
            <path d="M29.34,25.2000002 C28.2599946,25.2000002 27.2266716,25.0166687 26.24,24.6500002 C25.2533284,24.2833317 24.3400042,23.720004 23.5,22.9600002 L24.98,21.2000002 C25.6600034,21.7866698 26.3466632,22.2366653 27.04,22.5500002 C27.7333368,22.8633351 28.5199956,23.0200002 29.4,23.0200002 C30.1600038,23.0200002 30.7633311,22.8600018 31.21,22.5400002 C31.6566689,22.2199986 31.88,21.7933362 31.88,21.2600002 L31.88,21.2200002 C31.88,20.9666656 31.8366671,20.7433345 31.75,20.5500002 C31.6633329,20.3566659 31.5033345,20.1733344 31.27,20.0000002 C31.0366655,19.826666 30.7166687,19.6666676 30.31,19.5200002 C29.9033313,19.3733328 29.3733366,19.2266676 28.72,19.0800002 C27.9733296,18.906666 27.3100029,18.7100013 26.73,18.4900002 C26.1499971,18.2699991 25.6633353,18.0033351 25.27,17.6900002 C24.8766647,17.3766653 24.5766677,16.9933358 24.37,16.5400002 C24.1633323,16.0866646 24.06,15.5400034 24.06,14.9000002 L24.06,14.8600002 C24.06,14.2599972 24.1799988,13.7100027 24.42,13.2100002 C24.6600012,12.7099977 24.9899979,12.2833353 25.41,11.9300002 C25.8300021,11.5766651 26.3333304,11.3000012 26.92,11.1000002 C27.5066696,10.8999992 28.1466632,10.8000002 28.84,10.8000002 C29.8666718,10.8000002 30.7899959,10.9499987 31.61,11.2500002 C32.4300041,11.5500017 33.1999964,11.986664 33.92,12.5600002 L32.6,14.4200002 C31.9599968,13.9533312 31.3266698,13.5966681 30.7,13.3500002 C30.0733302,13.1033323 29.4400032,12.9800002 28.8,12.9800002 C28.0799964,12.9800002 27.520002,13.1399986 27.12,13.4600002 C26.719998,13.7800018 26.52,14.1733312 26.52,14.6400002 L26.52,14.6800002 C26.52,14.9466682 26.5666662,15.1833325 26.66,15.3900002 C26.7533338,15.5966679 26.9233321,15.7833327 27.17,15.9500002 C27.4166679,16.1166677 27.7566645,16.2733328 28.19,16.4200002 C28.6233355,16.5666676 29.17333,16.7199994 29.84,16.8800002 C30.573337,17.0666678 31.2233305,17.2733324 31.79,17.5000002 C32.3566695,17.726668 32.8266648,18.0033319 33.2,18.3300002 C33.5733352,18.6566685 33.8566657,19.0366647 34.05,19.4700002 C34.2433343,19.9033357 34.34,20.406664 34.34,20.9800002 L34.34,21.0200002 C34.34,21.6733368 34.2166679,22.2599976 33.97,22.7800002 C33.7233321,23.3000028 33.3800022,23.7399984 32.94,24.1000002 C32.4999978,24.460002 31.9733364,24.7333326 31.36,24.9200002 C30.7466636,25.1066678 30.073337,25.2000002 29.34,25.2000002 Z M37.38,11.0000002 L39.84,11.0000002 L39.84,25.0000002 L37.38,25.0000002 L37.38,11.0000002 Z M43.58,11.0000002 L46.04,11.0000002 L46.04,22.7600002 L53.4,22.7600002 L53.4,25.0000002 L43.58,25.0000002 L43.58,11.0000002 Z M54.76,11.0000002 L57.48,11.0000002 L61.7,21.7600002 L65.9,11.0000002 L68.56,11.0000002 L62.74,25.1000002 L60.58,25.1000002 L54.76,11.0000002 Z M70.96,11.0000002 L81.34,11.0000002 L81.34,13.2000002 L73.42,13.2000002 L73.42,16.8400002 L80.44,16.8400002 L80.44,19.0400002 L73.42,19.0400002 L73.42,22.8000002 L81.44,22.8000002 L81.44,25.0000002 L70.96,25.0000002 L70.96,11.0000002 Z M90.42,17.9400002 C91.3000044,17.9400002 91.9999974,17.7300023 92.52,17.3100002 C93.0400026,16.8899981 93.3,16.3200038 93.3,15.6000002 L93.3,15.5600002 C93.3,14.7999964 93.0466692,14.2233355 92.54,13.8300002 C92.0333308,13.4366649 91.3200046,13.2400002 90.4,13.2400002 L86.82,13.2400002 L86.82,17.9400002 L90.42,17.9400002 Z M84.36,11.0000002 L90.6,11.0000002 C91.4800044,11.0000002 92.2599966,11.1233323 92.94,11.3700002 C93.6200034,11.6166681 94.1866644,11.959998 94.64,12.4000002 C95.0133352,12.7866688 95.299999,13.233331 95.5,13.7400002 C95.700001,14.2466694 95.8,14.8066638 95.8,15.4200002 L95.8,15.4600002 C95.8,16.0333364 95.7166675,16.5499979 95.55,17.0100002 C95.3833325,17.4700025 95.1533348,17.8766651 94.86,18.2300002 C94.5666652,18.5833353 94.2166687,18.8833323 93.81,19.1300002 C93.4033313,19.3766681 92.9533358,19.5666662 92.46,19.7000002 L96.24,25.0000002 L93.34,25.0000002 L89.9,20.1200002 L86.82,20.1200002 L86.82,25.0000002 L84.36,25.0000002 L84.36,11.0000002 Z" id="SILVER" fill="#FFFFFF"></path>
        </g>
    </g>
</svg>
